front/src/Assets/image/sidebar/Credit_card.svg

<svg width="24" height="24" viewBox="0 0 24 24" fill="none" xmlns="http://www.w3.org/2000/svg">
<path d="M3.5 9.398C3.5 8.37292 3.5 7.86038 3.70266 7.47025C3.87343 7.14149 4.14149 6.87343 4.47025 6.70266C4.86038 6.5 5.37292 6.5 6.398 6.5H17.602C18.6271 6.5 19.1396 6.5 19.5298 6.70266C19.8585 6.87343 20.1266 7.14149 20.2973 7.47025C20.5 7.86038 20.5 8.37292 20.5 9.398V15.602C20.5 16.6271 20.5 17.1396 20.2973 17.5298C20.1266 17.8585 19.8585 18.1266 19.5298 18.2973C19.1396 18.5 18.6271 18.5 17.602 18.5H6.398C5.37292 18.5 4.86038 18.5 4.47025 18.2973C4.14149 18.1266 3.87343 17.8585 3.70266 17.5298C3.5 17.1396 3.5 16.6271 3.5 15.602V9.398Z" stroke="#666666"/>
<path d="M3.5 10.5L20.5 10.5" stroke="#666666" stroke-linecap="round"/>
<circle cx="6.5" cy="15.5" r="0.5" fill="#666666"/>
</svg>

<svg xmlns="http://www.w3.org/2000/svg" fill="none" viewBox="0 0 24 24">
  <path stroke="#666" d="M3.5 9.398c0-1.025 0-1.538.203-1.928a1.8 1.8 0 01.767-.767c.39-.203.903-.203 1.928-.203h11.204c1.025 0 1.538 0 1.928.203a1.8 1.8 0 01.767.767c.203.39.203.903.203 1.928v6.204c0 1.025 0 1.538-.203 1.928a1.8 1.8 0 01-.767.767c-.39.203-.903.203-1.928.203H6.398c-1.025 0-1.538 0-1.928-.203a1.8 1.8 0 01-.767-.767c-.203-.39-.203-.903-.203-1.928V9.398z"/>
  <path stroke="#666" stroke-linecap="round" d="M3.5 10.5h17"/>
  <circle cx="6.5" cy="15.5" r=".5" fill="#666"/>
</svg>
